!!!!SEGMENT: pl-wtm--r-1726--004_stefani-jozef--piekna-dziewczyna-z-gandawy-kontredans.krn
!!!cenid: 18xx:1890
!!!COM: Stefani, Józef
!!!COM-rismID: pe30024097
!!!CDT: 1800/04/16-1876/03/19
!!!CNT: Polish
!!!GTL: Piękna dziewczyna z Gandawy
!!!OTL: Kontredans [4]
!!!PDT:
!!!AGN: Secular
!!!SMS-siglum: PL-Wtm
!!!SMS-shelfmark: R 1726
!!!SMS-shelfwork: 004 G
!!!SMS-variant:
!!!SMS-altvar:
!!!NIFC-rismSourceID: 1001129103
!!!NIFC-islandoraID: pl-wtm:28458
!!!URL-pdf-islandora: https://repozytorium.nifc.pl/islandora/object/pl-wtm%3A28458/datastream/PDF/view
!!!URL-scan: https://polish.musicsources.pl/pl/lokalizacje/galeria/rekopisy/6463 @EN{Scan on Polish Music Sources Website} @PL{Skany w portalu Dziedzictwo Muzyki Polskiej w otwartym dostępie}
!!!ONB-nifc: UWAGA: No. 4. Partie perkusji zapisane osobno na końcu rękopisu
!!!AIN: 1 bdrum 1 clars 1 cor 1 empty 1 picco 1 timpa 1 trngl 1 tromp 1 tromt 1 viola 2 violn
!!!key:
**kern	**dynam	**kern	**dynam	**kern	**dynam	**kern	**dynam	**kern	**dynam	**kern	**dynam	**kern	**dynam	**kern	**dynam	**kern	**dynam	**kern	**dynam	**kern	**dynam	**kern	**dynam
*part12	*part12	*part11	*part11	*part10	*part10	*part9	*part9	*part8	*part8	*part7	*part7	*part6	*part6	*part5	*part5	*part4	*part4	*part3	*part3	*part2	*part2	*part1	*part1
*staff12	*	*staff11	*	*staff10	*	*staff9	*	*staff8	*	*staff7	*	*staff6	*	*staff5	*	*staff4	*	*staff3	*	*staff2	*	*staff1	*
*Ibdrum	*	*Itrngl	*	*Itimpa	*	*Iempty	*	*Iviola	*	*Ivioln	*	*Ivioln	*	*Itromt	*	*Itromp	*	*Icor	*	*Iclars	*	*Ipicco	*
*I"G[ran]. C[assa].	*	*I"Triangolo	*	*I"Timpani	*	*I"Basſi	*	*I"Viole	*	*I"Violino 2o	*	*I"Violino I	*	*I"Trombone	*	*I"in C Trombe Chromatique	*	*I"in d: Corni	*	*I"in C Clarinetti	*	*I"Picolo Flauto	*
*I'grancassa	*	*I'triangolo	*	*I'timp	*	*I'b	*	*I'vla	*	*I'vl 2	*	*I'vl 1	*	*I'trb	*	*I'tr crom in C	*	*I'cor in D	*	*I'cl in C	*	*I'fl.picc	*
*clefF4	*	*clefG2	*	*clefF4	*	*clefF4	*	*clefC3	*	*clefG2	*	*clefG2	*	*clefF4	*	*clefG2	*	*clefG2	*	*clefG2	*	*clefG2	*
*	*	*	*	*	*	*	*	*	*	*	*	*	*	*	*	*	*	*ITrd6c10	*	*	*	*ITrd0c0	*
*k[]	*	*k[]	*	*k[]	*	*k[f#c#]	*	*k[f#c#]	*	*k[f#c#]	*	*k[f#c#]	*	*k[f#c#]	*	*k[f#c#]	*	*k[f#c#]	*	*k[f#c#]	*	*k[f#c#]	*
*b:	*	*b:	*	*b:	*	*b:	*	*b:	*	*b:	*	*b:	*	*b:	*	*b:	*	*b:	*	*b:	*	*b:	*
*M2/4	*	*M2/4	*	*M2/4	*	*M2/4	*	*M2/4	*	*M2/4	*	*M2/4	*	*M2/4	*	*M2/4	*	*M2/4	*	*M2/4	*	*M2/4	*
!	!	!	!	!	!	!	!	!	!	!	!	!	!	!	!	!	!	!	!	!	!	!LO:TX:t=P:problem=due - flauto + piccolo zapisane na jednej pięciolinii.	!
!	!	!	!	!	!	!	!	!	!	!	!	!	!	!	!	!	!	!	!	!	!	!LO:TX:rj:a:t=due	!
!	!	!	!	!LO:TX:b:t=No 4.	!	!	!	!	!	!	!	!	!	!	!	!	!	!	!	!	!	!	!
!	!	!	!	!	!	!	!	!	!	!	!	!	!	!	!	!	!	!	!	!LO:TX:rj:b:t=due	!	!LO:TX:a:t=No 4.	!
32r	.	32r	.	32r	.	32r	.	32r	.	32f#/KLL	.	32ff#'\KLL	f	32r	.	32r	.	32r	.	32f#/KLL	.	32ff#\LLL|	ff
8r	.	8r	.	8r	.	8r	.	8r	.	16.g#X/	.	16.gg#X'\	.	8r	.	8r	.	8r	.	16.g#X/	.	16.gg#X\|	.
.	.	.	.	.	.	.	.	.	.	32a#X/JJk	.	32aa#X'\JJk	.	.	.	.	.	.	.	32a#X/JJk	.	32aa#X\JJJ|	.
=1	=1	=1	=1	=1	=1	=1	=1	=1	=1	=1	=1	=1	=1	=1	=1	=1	=1	=1	=1	=1	=1	=1	=1
*	*	*	*	*	*	*	*	*	*	*	*	*	*	*	*	*^	*	*^	*	*	*	*	*
*	*	*tremolo	*	*tremolo	*	*tremolo	*	*tremolo	*	*	*	*	*	*	*	*	*	*	*	*	*	*	*	*	*
!	!LO:DY:rj:t=ffo	!	!	!	!LO:DY:rj:t=ffo	!	!	!	!	!	!	!	!	!	!	!	!	!	!	!	!	!	!	!	!
4.C/	ff	32ee\LLL	.	32D\LLL	ff	16BB/LL	.	16f#\LL 16d\	ff	4bT\yy	ff	4bbT\	ff	[4B\	.	[4b/	[4d\	.	[4f#/	[4d\	ff	[>4b/	.	4bb\	.
.	.	32ee\	.	32D\	.	.	.	.	.	.	.	.	.	.	.	.	.	.	.	.	.	.	.	.	.
.	.	32ee\	.	32D\	.	16BB/	.	16f#\ 16d\	.	.	.	.	.	.	.	.	.	.	.	.	.	.	.	.	.
.	.	32ee\	.	32D\	.	.	.	.	.	.	.	.	.	.	.	.	.	.	.	.	.	.	.	.	.
.	.	32ee\	.	32D\	.	16BB/	.	16f#\ 16d\	.	.	.	.	.	.	.	.	.	.	.	.	.	.	.	.	.
.	.	32ee\	.	32D\	.	.	.	.	.	.	.	.	.	.	.	.	.	.	.	.	.	.	.	.	.
.	.	32ee\	.	32D\	.	16BB/JJ	.	16f#\JJ 16d\	.	.	.	.	.	.	.	.	.	.	.	.	.	.	.	.	.
.	.	32ee\JJJ	.	32D\JJJ	.	.	.	.	.	.	.	.	.	.	.	.	.	.	.	.	.	.	.	.	.
.	.	.	.	.	.	.	.	.	.	(16qqa#X/LLyy	.	(16qqaa#X/LL	.	.	.	.	.	.	.	.	.	.	.	(<16qqaa#X\LL	.
.	.	.	.	.	.	.	.	.	.	16qqb/yy	.	16qqbb/	.	.	.	.	.	.	.	.	.	.	.	16qqbb\	.
.	.	.	.	.	.	.	.	.	.	16qqcc#/JJyy	.	16qqccc#/JJ	.	.	.	.	.	.	.	.	.	.	.	16qqccc#\JJ	.
.	.	8ee\	.	8D\	.	8BB/	.	8f#\ 8d\	.	16.b'\LL)yy	.	16.bb'\LL)	.	8B\]	.	16.b/LL]	8d\]	.	8f#/]	8d\]	.	16.b/LL]	.	16.bb\)	.
.	.	.	.	.	.	.	.	.	.	32f#'\Kyy	.	32ff#'\K	.	.	.	32f#/K	.	.	.	.	.	32f#/K	.	32ff#\|	.
8r	.	8r	.	8r	.	8r	.	8r	.	16.dd'\yy	.	16.ddd'\	.	8r	.	16.dd/	8r	.	8r	8ryy	.	16.dd/	.	16.ddd\|	.
.	.	.	.	.	.	.	.	.	.	32cc#'\JJkyy	.	32ccc#'\JJk	.	.	.	32cc#/JJk	.	.	.	.	.	32cc#/JJk	.	32ccc#\|	.
=2	=2	=2	=2	=2	=2	=2	=2	=2	=2	=2	=2	=2	=2	=2	=2	=2	=2	=2	=2	=2	=2	=2	=2	=2	=2
*	*	*	*	*	*	*rep	*	*rep	*	*rep	*	*rep	*	*	*	*rep	*rep	*	*	*	*	*rep	*	*rep	*
4.C/	.	32ee\LLL	.	32D\LLL	.	16BB/LL	.	16f#\LL 16d\	.	4bT\yy	.	4bbT\	.	[4B\	.	[4b/	[4d\	.	[4f#/	[4d\	.	[>4b/	.	4bb\	.
.	.	32ee\	.	32D\	.	.	.	.	.	.	.	.	.	.	.	.	.	.	.	.	.	.	.	.	.
.	.	32ee\	.	32D\	.	16BB/	.	16f#\ 16d\	.	.	.	.	.	.	.	.	.	.	.	.	.	.	.	.	.
.	.	32ee\	.	32D\	.	.	.	.	.	.	.	.	.	.	.	.	.	.	.	.	.	.	.	.	.
.	.	32ee\	.	32D\	.	16BB/	.	16f#\ 16d\	.	.	.	.	.	.	.	.	.	.	.	.	.	.	.	.	.
.	.	32ee\	.	32D\	.	.	.	.	.	.	.	.	.	.	.	.	.	.	.	.	.	.	.	.	.
.	.	32ee\	.	32D\	.	16BB/JJ	.	16f#\JJ 16d\	.	.	.	.	.	.	.	.	.	.	.	.	.	.	.	.	.
.	.	32ee\JJJ	.	32D\JJJ	.	.	.	.	.	.	.	.	.	.	.	.	.	.	.	.	.	.	.	.	.
.	.	.	.	.	.	.	.	.	.	(16qqa#X/LLyy	.	(16qqaa#X/LL	.	.	.	.	.	.	.	.	.	.	.	(<16qqaa#X\	.
.	.	.	.	.	.	.	.	.	.	16qqb/yy	.	16qqbb/	.	.	.	.	.	.	.	.	.	.	.	16qqbb\	.
.	.	.	.	.	.	.	.	.	.	16qqcc#/JJyy	.	16qqccc#/JJ	.	.	.	.	.	.	.	.	.	.	.	16qqccc#\)	.
.	.	8ee\	.	8D\	.	8BB/	.	8f#\ 8d\	.	16.b'\LL)yy	.	16.bb'\LL)	.	8B\]	.	16.b/LL]	8d\]	.	8f#/]	8d\]	.	16.b/LL]	.	16.bb\	.
.	.	.	.	.	.	.	.	.	.	32f#'\Kyy	.	32ff#'\K	.	.	.	32f#/K	.	.	.	.	.	32f#/K	.	32ff#\|	.
8r	.	8r	.	8r	.	8r	.	8r	.	16.dd'\yy	.	16.ddd'\	.	8r	.	16.dd/	8r	.	8r	8ryy	.	16.dd/	.	16.ddd\|	.
.	.	.	.	.	.	.	.	.	.	32cc#'\JJkyy	.	32ccc#'\JJk	.	.	.	32cc#/JJk	.	.	.	.	.	32cc#/JJk	.	32ccc#\|	.
*	*	*	*	*	*	*Xrep	*	*Xrep	*	*Xrep	*	*Xrep	*	*	*	*Xrep	*Xrep	*	*	*	*	*Xrep	*	*Xrep	*
*	*	*	*	*	*	*Xtremolo	*	*Xtremolo	*	*	*	*	*	*	*	*	*	*	*	*	*	*	*	*	*
*	*	*	*	*	*	*	*	*	*	*	*	*	*	*	*	*v	*v	*	*	*	*	*	*	*	*
=3	=3	=3	=3	=3	=3	=3	=3	=3	=3	=3	=3	=3	=3	=3	=3	=3	=3	=3	=3	=3	=3	=3	=3	=3
!LO:TX:a:t=2.	!	!LO:TX:a:t=2.	!	!LO:TX:a:t=2.	!	!	!	!	!	!	!	!	!	!	!	!	!	!	!	!	!	!	!	!
2r	.	2r	.	2r	.	16.BB/	.	16.f#\ 16.d\	.	16.b\yy	.	16.bb\	.	16.B\	.	16.b/ 16.d/	.	16.f#/	16.d\	.	16.b/	.	16.bb\ 16.b\yy	.
!	!	!	!	!	!	!	!	!	!	!LO:SIC:v:s=32g	!	!	!	!	!	!	!	!	!	!	!	!	!	!
.	.	.	.	.	.	32G\KLL	.	32G/KLL	.	32G/KLLyy	.	32g/KLL	.	32r	.	32r	.	32r	32ryy	.	32g/KLL	.	32r	.
!	!	!	!	!	!	!	!	!	!	!LO:SIC:v:16.f#	!	!	!	!	!	!	!	!	!	!	!	!	!	!
.	.	.	.	.	.	16.F#\	.	16.F#/	.	16.F#/yy	.	16.f#/	.	8r	.	8r	.	8r	8ryy	.	16.f#/	.	8r	.
!	!	!	!	!	!	!	!	!	!	!LO:SIC:v:32e#	!	!	!	!	!	!	!	!	!	!	!	!	!	!
.	.	.	.	.	.	32E#X\JJk	.	32E#X/JJk	.	32E#X/JJkyy	.	32e#X/JJk	.	.	.	.	.	.	.	.	32e#X/JJk	.	.	.
!	!	!	!	!	!	!	!	!	!	!LO:SIC:v:s=8f#	!	!	!	!	!	!	!	!	!	!	!	!	!	!
.	.	.	.	.	.	8F#\	.	8F#/	.	8F#/yy	.	8f#/	.	8r	.	4r	.	8r	8ryy	.	8f#/	.	8r	.
*	*	*	*	*	*	*	*	*	*	*	*	*	*	*	*	*	*	*v	*v	*	*	*	*	*
*	*	*	*	*	*	*	*	*	*	*	*	*	*	*	*	*	*	*^	*	*	*	*	*
.	.	.	.	.	.	8F#\	.	8f#\ 8d\	.	8dd\	.	8bb\	.	8F#\	.	.	.	8f#/	8f#\	.	8dd\ 8b\	.	8bb\ 8b'\yy	.
=4	=4	=4	=4	=4	=4	=4	=4	=4	=4	=4	=4	=4	=4	=4	=4	=4	=4	=4	=4	=4	=4	=4	=4	=4
*	*	*	*	*	*	*tremolo	*	*	*	*	*	*	*	*tremolo	*	*	*	*tremolo	*tremolo	*	*	*	*	*
*	*	*	*	*	*	*2\right	*	*	*	*	*	*	*	*2\right	*	*	*	*	*	*	*	*	*	*
2r	.	2r	.	2r	.	8F#\L	.	8f#\L 8c#\	.	8cc#'\L	.	8aa#X'\L	.	8F#'\L	.	2r	.	8f#/L	8f#\L	.	8cc#\L 8a#X'\	.	8aa#X\L 8a#X'\yy	.
.	.	.	.	.	.	8F#\	.	8f#\ 8d\	.	8dd'\	.	8bb'\	.	8F#'\	.	.	.	8f#/	8f#\	.	8dd\ 8b'\	.	8bb\ 8b'\yy	.
.	.	.	.	.	.	8F#\	.	8f#\ 8e\	.	8ee'\	.	8ccc#'\	.	8F#'\	.	.	.	8f#/	8f#\	.	8ee\ 8cc#'\	.	8ccc#\ 8cc#'\yy	.
.	.	.	.	.	.	8F#\J	.	8f#\J 8d\	.	8ff#'\J	.	8ddd'\J	.	8F#'\J	.	.	.	8f#/J	8f#\J	.	8ff#\J 8dd'\	.	8ddd\J 8dd'\yy	.
*	*	*	*	*	*	*	*	*	*	*	*	*	*	*Xtremolo	*	*	*	*Xtremolo	*Xtremolo	*	*	*	*	*
*	*	*	*	*	*	*	*	*	*	*	*	*	*	*	*	*	*	*v	*v	*	*	*	*	*
!	!	!	!	!	!	!LO:LB:g=original	!	!LO:LB:g=original	!	!LO:LB:g=original	!	!LO:LB:g=original	!	!LO:LB:g=original	!	!	!	!	!	!LO:LB:g=original	!	!LO:LB:g=original	!
=5	=5	=5	=5	=5	=5	=5	=5	=5	=5	=5	=5	=5	=5	=5	=5	=5	=5	=5	=5	=5	=5	=5	=5
*	*	*	*	*	*	*	*	*tremolo	*	*8ba	*	*	*	*	*	*	*	*	*	*	*	*	*
*	*	*	*	*	*	*	*	*	*	*	*	*	*	*	*	*^	*	*	*	*	*	*	*
!	!	!	!	!	!	!	!	!	!	!	!	!	!	!	!	!	!	!	!	!LO:DY:rj	!	!	!	!
4.C/	.	32ee\LLL	.	32D\LLL	f	16BB/LL	.	16f#\LL 16d\	.	4bT\yy	.	4bbT\	.	[4B\	.	[4b/	[4d\	.	[4f#\ [4d\	f	[4b/	.	4bb\	.
.	.	32ee\	.	32D\	.	.	.	.	.	.	.	.	.	.	.	.	.	.	.	.	.	.	.	.
.	.	32ee\	.	32D\	.	16BB/	.	16f#\ 16d\	.	.	.	.	.	.	.	.	.	.	.	.	.	.	.	.
.	.	32ee\	.	32D\	.	.	.	.	.	.	.	.	.	.	.	.	.	.	.	.	.	.	.	.
.	.	32ee\	.	32D\	.	16BB/	.	16f#\ 16d\	.	.	.	.	.	.	.	.	.	.	.	.	.	.	.	.
.	.	32ee\	.	32D\	.	.	.	.	.	.	.	.	.	.	.	.	.	.	.	.	.	.	.	.
.	.	32ee\	.	32D\	.	16BB/JJ	.	16f#\JJ 16d\	.	.	.	.	.	.	.	.	.	.	.	.	.	.	.	.
.	.	32ee\JJJ	.	32D\JJJ	.	.	.	.	.	.	.	.	.	.	.	.	.	.	.	.	.	.	.	.
.	.	.	.	.	.	.	.	.	.	(16qqa#X/LLyy	.	(16qqaa#X/LL	.	.	.	.	.	.	.	.	.	.	(<16qqaa#X\LL	.
.	.	.	.	.	.	.	.	.	.	16qqb/yy	.	16qqbb/	.	.	.	.	.	.	.	.	.	.	16qqbb\	.
.	.	.	.	.	.	.	.	.	.	16qqcc#/JJyy	.	16qqccc#/JJ	.	.	.	.	.	.	.	.	.	.	16qqccc#\JJ)	.
.	.	8ee\	.	8D\	.	8BB/	.	8f#\ 8d\	.	16.b\LL)yy	.	16.bb\LL)	.	8B\]	.	16.b/LL]	8d\]	.	8f#\] 8d\]	.	16.b/LL]	.	16.bb\LLL	.
.	.	.	.	.	.	.	.	.	.	32f#\Kyy	.	32ff#\K	.	.	.	32f#/K	.	.	.	.	32f#/K	.	32ff#\	.
8r	.	8r	.	8r	.	8r	.	8r	.	16.dd\yy	.	16.ddd\	.	8r	.	16.dd/	8r	.	8r	.	16.dd/	.	16.ddd\	.
.	.	.	.	.	.	.	.	.	.	32cc#\JJkyy	.	32ccc#\JJk	.	.	.	32cc#/JJk	.	.	.	.	32cc#/JJk	.	32ccc#\JJJ	.
=6	=6	=6	=6	=6	=6	=6	=6	=6	=6	=6	=6	=6	=6	=6	=6	=6	=6	=6	=6	=6	=6	=6	=6	=6
*	*	*rep	*	*rep	*	*rep	*	*rep	*	*rep	*	*rep	*	*	*	*rep	*rep	*	*rep	*	*rep	*	*rep	*
4.C/	.	32ee\LLL	.	32D\LLL	.	16BB/LL	.	16f#\LL 16d\	.	4bT\yy	.	4bbT\	.	[4B\	.	[4b/	[4d\	.	[4f#\ [4d\	.	[4b/	.	4bb\	.
.	.	32ee\	.	32D\	.	.	.	.	.	.	.	.	.	.	.	.	.	.	.	.	.	.	.	.
.	.	32ee\	.	32D\	.	16BB/	.	16f#\ 16d\	.	.	.	.	.	.	.	.	.	.	.	.	.	.	.	.
.	.	32ee\	.	32D\	.	.	.	.	.	.	.	.	.	.	.	.	.	.	.	.	.	.	.	.
.	.	32ee\	.	32D\	.	16BB/	.	16f#\ 16d\	.	.	.	.	.	.	.	.	.	.	.	.	.	.	.	.
.	.	32ee\	.	32D\	.	.	.	.	.	.	.	.	.	.	.	.	.	.	.	.	.	.	.	.
.	.	32ee\	.	32D\	.	16BB/JJ	.	16f#\JJ 16d\	.	.	.	.	.	.	.	.	.	.	.	.	.	.	.	.
.	.	32ee\JJJ	.	32D\JJJ	.	.	.	.	.	.	.	.	.	.	.	.	.	.	.	.	.	.	.	.
.	.	.	.	.	.	.	.	.	.	(16qqa#X/LLyy	.	(16qqaa#X/LL	.	.	.	.	.	.	.	.	.	.	(<16qqaa#X\	.
.	.	.	.	.	.	.	.	.	.	16qqb/yy	.	16qqbb/	.	.	.	.	.	.	.	.	.	.	16qqbb\	.
.	.	.	.	.	.	.	.	.	.	16qqcc#/JJyyyyyy	.	16qqccc#/JJ	.	.	.	.	.	.	.	.	.	.	16qqccc#\)	.
.	.	8ee\	.	8D\	.	8BB/	.	8f#\ 8d\	.	16.b\LL)yyyy	.	16.bb\LL)	.	8B\]	.	16.b/LL]	8d\]	.	8f#\] 8d\]	.	16.b/LL]	.	16.bb\LLL	.
.	.	.	.	.	.	.	.	.	.	32f#\Kyy	.	32ff#\K	.	.	.	32f#/K	.	.	.	.	32f#/K	.	32ff#\	.
8r	.	8r	.	8r	.	8r	.	8r	.	16.dd\yyyy	.	16.ddd\	.	8r	.	16.dd/	8r	.	8r	.	16.dd/	.	16.ddd\	.
.	.	.	.	.	.	.	.	.	.	32cc#\JJkyy	.	32ccc#\JJk	.	.	.	32cc#/JJk	.	.	.	.	32cc#X/JJk	.	32ccc#\JJJ	.
*	*	*Xrep	*	*Xrep	*	*Xrep	*	*Xrep	*	*Xrep	*	*Xrep	*	*	*	*Xrep	*Xrep	*	*Xrep	*	*Xrep	*	*Xrep	*
*	*	*	*	*	*	*Xtremolo	*	*Xtremolo	*	*	*	*	*	*	*	*	*	*	*	*	*	*	*	*
*	*	*	*	*	*	*	*	*	*	*	*	*	*	*	*	*v	*v	*	*	*	*	*	*	*
!LO:LB:g=original	!LO:LB:g=original	!LO:LB:g=original	!	!	!	!	!	!	!	!	!	!	!	!	!	!	!	!	!	!	!	!	!
=7	=7	=7	=7	=7	=7	=7	=7	=7	=7	=7	=7	=7	=7	=7	=7	=7	=7	=7	=7	=7	=7	=7	=7
*	*	*	*	*	*	*	*	*	*	*	*	*	*	*^	*	*	*	*^	*	*	*	*	*
!	!	!LO:TX:a:t=1.	!	!LO:TX:a:t=1.	!	!	!	!	!	!	!	!	!	!	!	!	!	!	!	!	!	!	!	!	!
2r	.	2r	.	2r	.	16.BB/	.	16.f#\ 16.d\	.	16.b\yy	.	16.bb\	.	16.B\	16.ryy	.	16.b/ 16.d/	.	16.f#/	16.d\	.	16.b/	.	16.bb\ 16.b\yy	.
!	!	!	!	!	!	!	!	!	!	!LO:SIC:v:s=32g	!	!	!	!	!	!	!	!	!	!	!	!	!	!	!
.	.	.	.	.	.	32G\KLL	.	32G/KLL	.	32G/KLLyy	.	32g/KLL	.	32r	32ryy	.	32ryy	.	32r	32ryy	.	32g/KLL	.	32r	.
!	!	!	!	!	!	!	!	!	!	!LO:SIC:v:16.f#	!	!	!	!	!	!	!	!	!	!	!	!	!	!	!
.	.	.	.	.	.	16.F#\	.	16.F#/	.	16.F#/yy	.	16.f#/	.	8r	8ryy	.	8r	.	8r	8ryy	.	16.f#/	.	8r	.
!	!	!	!	!	!	!	!	!	!	!LO:SIC:v:32e#	!	!	!	!	!	!	!	!	!	!	!	!	!	!	!
.	.	.	.	.	.	32E#X\JJk	.	32E#X/JJk	.	32E#X/JJkyy	.	32e#X/JJk	.	.	.	.	.	.	.	.	.	32e#X/JJk	.	.	.
!	!	!	!	!	!	!	!	!	!	!LO:SIC:v:8f#	!	!	!	!	!	!	!	!	!	!	!	!	!	!	!
.	.	.	.	.	.	8F#\	.	8F#/	.	8F#/yy	.	8f#/	.	8r	4r	.	4r	.	8r	8ryy	.	8f#/	.	8r	.
.	.	.	.	.	.	8F#\	.	8f#\ 8d\	.	8dd\	.	8bb\	.	8F#\	.	.	.	.	8f#/	8f#\	.	8dd\ 8b\	.	8bb\ 8b\yy	.
*	*	*	*	*	*	*	*	*	*	*	*	*	*	*v	*v	*	*	*	*	*	*	*	*	*	*
=8	=8	=8	=8	=8	=8	=8	=8	=8	=8	=8	=8	=8	=8	=8	=8	=8	=8	=8	=8	=8	=8	=8	=8	=8
!	!	!	!	!	!	!LO:TX:t=P:problem=mixed beam	!	!	!	!	!	!	!LO:TX:t=P:problem=mixed beam	!	!	!	!	!	!	!	!	!	!	!
8r	.	2r	.	2r	.	8F#\L	.	8f#\L 8c#\	.	8cc#\L	.	8aa#X'\L	.	8F#/L	.	8r	.	8f#/L	8e\L	.	8ee\L 8cc#\	.	8aa#X\L 8a#X\yy	.
8C/L	.	.	.	.	.	8F#\	.	8f#\ 8c#\	.	8ee\	.	8ccc#'\	.	8F#\	.	8cc#\L 8a#X\	.	8f#/	8e\	.	8ee\ 8cc#\	.	8ccc#\ 8cc#\yy	.
8C/J	.	.	.	.	.	8BB/J	.	8f#\J 8d\	.	8dd\J	.	8bb'\J	.	8BB/J	.	8b\J	.	8f#/J	8d\J	.	8dd\J 8b\	.	8bb\J 8b\yy	.
8r	.	.	.	.	.	8r	.	8r	.	8r	.	8r	.	8r	.	8r	.	8r	8ryy	.	8r	.	8r	.
=9|:	=9|:	=9|:	=9|:	=9|:	=9|:	=9|:	=9|:	=9|:	=9|:	=9|:	=9|:	=9|:	=9|:	=9|:	=9|:	=9|:	=9|:	=9|:	=9|:	=9|:	=9|:	=9|:	=9|:	=9
!	!	!	!	!LO:TX:t=P:problem=początek repetycji ołówkiem	!	!	!	!	!	!	!	!	!	!	!	!	!	!	!	!	!	!	!LO:TX:t=P:problem=forte ołówkiem	!
!LO:TX:a:t=8.	!	!LO:TX:a:t=8.	!	!LO:TX:a:t=8.	!	!	!	!	!	!	!	!	!	!	!	!	!	!	!	!	!	!	!LO:TX:t=P:problem=początek repetycji ołówkiem	!
2r	.	2r	.	2r	.	8D\	.	(2A/ (2D/	.	8r	.	8.aT\L	pp	2r	.	2r	.	2f#/	2d\	p	2r	.	2r	.
.	.	.	.	.	.	8r	.	.	.	8f#/ 8d/	.	.	.	.	.	.	.	.	.	.	.	.	.	.
.	.	.	.	.	.	.	.	.	.	.	.	16dd\Jk	.	.	.	.	.	.	.	.	.	.	.	.
.	.	.	.	.	.	8D\	.	.	.	8r	.	16.ff#\LL	.	.	.	.	.	.	.	.	.	.	.	.
.	.	.	.	.	.	.	.	.	.	.	.	32ff#\K	.	.	.	.	.	.	.	.	.	.	.	.
.	.	.	.	.	.	8r	.	.	.	8f#/ 8d/	.	16.ff#\	.	.	.	.	.	.	.	.	.	.	.	.
.	.	.	.	.	.	.	.	.	.	.	.	32ff#\JJk	.	.	.	.	.	.	.	.	.	.	.	.
=10	=10	=10	=10	=10	=10	=10	=10	=10	=10	=10	=10	=10	=10	=10	=10	=10	=10	=10	=10	=10	=10	=10	=10	=10
!	!	!	!	!	!	!	!	!	!	!	!	!	!	!	!	!	!	!	!	!	!	!	!LO:TX:rj:a:t=Picolo	!
2r	.	2r	.	2r	.	8GG/	.	2B/ 2G/))	.	8r	.	8ff#\L	.	2r	.	2r	.	([2e/	2e\	.	2r	.	8r	.
.	.	.	.	.	.	8r	.	.	.	8g/ 8e/	.	8b\J	.	.	.	.	.	.	.	.	.	.	8b\	.
.	.	.	.	.	.	8GG/	.	.	.	8r	.	4bb\	.	.	.	.	.	.	.	.	.	.	(4bb\	.
.	.	.	.	.	.	8r	.	.	.	8g/ 8e/	.	.	.	.	.	.	.	.	.	.	.	.	.	.
!!LO:LB:g=original
=11	=11	=11	=11	=11	=11	=11	=11	=11	=11	=11	=11	=11	=11	=11	=11	=11	=11	=11	=11	=11	=11	=11	=11	=11
*	*	*	*	*	*	*	*	*	*	*	*	*	*	*	*	*	*	*	*	*	*	*	*^	*
*	*	*	*	*	*	*	*	*	*	*	*	*	*	*	*	*	*	*	*	*	*	*	*	*^	*
2r	.	2r	.	2r	.	8AA/	.	2A/	.	8r	.	16cc#/	.	2r	.	2r	.	(2g/)	(2e\]	.	2r	.	16cc#/)	4cc#\	2r	.
.	.	.	.	.	.	.	.	.	.	.	.	16r	.	.	.	.	.	.	.	.	.	.	16r	.	.	.
.	.	.	.	.	.	8r	.	.	.	8g/ 8c#/	.	(32bb\LLL	.	.	.	.	.	.	.	.	.	.	(<32bb/LLL	.	.	.
.	.	.	.	.	.	.	.	.	.	.	.	32aa\	.	.	.	.	.	.	.	.	.	.	32aa/	.	.	.
.	.	.	.	.	.	.	.	.	.	.	.	32gg\	.	.	.	.	.	.	.	.	.	.	32gg/	.	.	.
.	.	.	.	.	.	.	.	.	.	.	.	32ee\JJJ)	.	.	.	.	.	.	.	.	.	.	32ee/JJJ)	.	.	.
.	.	.	.	.	.	8BB/	.	.	.	8r	.	16cc#\	.	.	.	.	.	.	.	.	.	.	16cc#/	4ryy	.	.
.	.	.	.	.	.	.	.	.	.	.	.	16r	.	.	.	.	.	.	.	.	.	.	16r	.	.	.
.	.	.	.	.	.	8r	.	.	.	8g/ 8c#/	.	[8aa\	.	.	.	.	.	.	.	.	.	.	[8aa/	.	.	.
*	*	*	*	*	*	*	*	*	*	*	*	*	*	*	*	*	*	*	*	*	*	*	*	*v	*v	*
=12	=12	=12	=12	=12	=12	=12	=12	=12	=12	=12	=12	=12	=12	=12	=12	=12	=12	=12	=12	=12	=12	=12	=12	=12	=12
2r	.	2r	.	2r	.	8D\	.	2A/ 2D/	.	8r	.	8aa\L]	.	2r	.	2r	.	2f#/)	2d\)	.	2r	.	8aa/L]	2r	.
.	.	.	.	.	.	8r	.	.	.	8f#/ 8d/	.	(32gg\LL	.	.	.	.	.	.	.	.	.	.	(32gg/LL	.	.
.	.	.	.	.	.	.	.	.	.	.	.	32ff#\	.	.	.	.	.	.	.	.	.	.	32ff#/	.	.
.	.	.	.	.	.	.	.	.	.	.	.	32ee\	.	.	.	.	.	.	.	.	.	.	32ee/	.	.
.	.	.	.	.	.	.	.	.	.	.	.	32dd\JJJ)	.	.	.	.	.	.	.	.	.	.	32dd/JJJ)	.	.
.	.	.	.	.	.	8D\	.	.	.	8r	.	(8ddd\L	.	.	.	.	.	.	.	.	.	.	(8ddd/L	.	.
.	.	.	.	.	.	8r	.	.	.	8f#/ 8d/	.	16dd\Jk)	.	.	.	.	.	.	.	.	.	.	16dd/Jk)	.	.
.	.	.	.	.	.	.	.	.	.	.	.	16r	.	.	.	.	.	.	.	.	.	.	16r	.	.
*	*	*	*	*	*	*	*	*	*	*	*	*	*	*	*	*	*	*	*	*	*	*	*v	*v	*
=13	=13	=13	=13	=13	=13	=13	=13	=13	=13	=13	=13	=13	=13	=13	=13	=13	=13	=13	=13	=13	=13	=13	=13	=13
*	*	*	*	*	*	*rep	*	*	*	*	*	*	*	*	*	*	*	*	*	*	*	*	*	*
2r	.	2r	.	2r	.	8D\	.	2A/ 2D/	.	8r	.	8.a\L	.	2r	.	2r	.	(2f#/	(2d\	.	2r	.	2r	.
.	.	.	.	.	.	8r	.	.	.	8f#/ 8d/	.	.	.	.	.	.	.	.	.	.	.	.	.	.
.	.	.	.	.	.	.	.	.	.	.	.	16dd\Jk	.	.	.	.	.	.	.	.	.	.	.	.
.	.	.	.	.	.	8D\	.	.	.	8r	.	16.ff#\LL	.	.	.	.	.	.	.	.	.	.	.	.
.	.	.	.	.	.	.	.	.	.	.	.	32ff#\K	.	.	.	.	.	.	.	.	.	.	.	.
.	.	.	.	.	.	8r	.	.	.	8f#/ 8d/	.	16.ff#\	.	.	.	.	.	.	.	.	.	.	.	.
.	.	.	.	.	.	.	.	.	.	.	.	32ff#\JJk	.	.	.	.	.	.	.	.	.	.	.	.
*	*	*	*	*	*	*Xrep	*	*	*	*	*	*	*	*	*	*	*	*	*	*	*	*	*	*
=14	=14	=14	=14	=14	=14	=14	=14	=14	=14	=14	=14	=14	=14	=14	=14	=14	=14	=14	=14	=14	=14	=14	=14	=14
*	*	*	*	*	*	*	*	*	*	*	*	*	*	*	*	*	*	*	*	*	*	*	*^	*
2r	.	2r	.	2r	.	8GG/	.	2B/ 2G/	.	8r	.	8ff#\L	.	2r	.	2r	.	(2e/)	[2e\)	.	2r	.	8r	2r	.
.	.	.	.	.	.	8r	.	.	.	8g/ 8e/	.	8b\J	.	.	.	.	.	.	.	.	.	.	8b/	.	.
.	.	.	.	.	.	8GG/	.	.	.	8r	.	(4bb^\	.	.	.	.	.	.	.	.	.	.	(4bb/	.	.
.	.	.	.	.	.	8r	.	.	.	8g/ 8e/	.	.	.	.	.	.	.	.	.	.	.	.	.	.	.
=15	=15	=15	=15	=15	=15	=15	=15	=15	=15	=15	=15	=15	=15	=15	=15	=15	=15	=15	=15	=15	=15	=15	=15	=15	=15
2r	.	2r	.	2r	.	8AA/	.	2A/	.	8r	.	16cc#\)	.	2r	.	2r	.	2g/)	2e\]	.	2r	.	16cc#/)	2r	.
.	.	.	.	.	.	.	.	.	.	.	.	16r	.	.	.	.	.	.	.	.	.	.	16r	.	.
.	.	.	.	.	.	8r	.	.	.	8g/ 8c#/	.	(32bb\LLL	.	.	.	.	.	.	.	.	.	.	32bb/LLL	.	.
.	.	.	.	.	.	.	.	.	.	.	.	32aa\	.	.	.	.	.	.	.	.	.	.	32aa/	.	.
.	.	.	.	.	.	.	.	.	.	.	.	32gg\	.	.	.	.	.	.	.	.	.	.	32gg/	.	.
.	.	.	.	.	.	.	.	.	.	.	.	32ee\JJJ	.	.	.	.	.	.	.	.	.	.	32ee/JJJ	.	.
.	.	.	.	.	.	8AA/	.	.	.	8r	.	16b\)	.	.	.	.	.	.	.	.	.	.	8b/L	.	.
.	.	.	.	.	.	.	.	.	.	.	.	16r	.	.	.	.	.	.	.	.	.	.	.	.	.
.	.	.	.	.	.	8r	.	.	.	8g/ 8e/	.	8cc#\	.	.	.	.	.	.	.	.	.	.	8cc#/J	.	.
!	!	!	!	!	!	!LO:LB:g=original	!	!LO:LB:g=original	!	!LO:LB:g=original	!	!LO:LB:g=original	!	!LO:LB:g=original	!	!	!	!	!	!LO:LB:g=original	!	!	!LO:LB:g=original	!LO:LB:g=original	!
=16	=16	=16	=16	=16	=16	=16	=16	=16	=16	=16	=16	=16	=16	=16	=16	=16	=16	=16	=16	=16	=16	=16	=16	=16	=16
2r	.	2r	.	2r	.	4D\	.	4A/ 4D/	.	4f#/ 4d/	.	4dd\	.	2r	.	4r	.	4f#/	4d\	.	2r	.	4dd/	4r	.
.	.	.	.	.	.	4r	.	4r	.	4r	.	4r	.	.	.	8r	.	4r	4ryy	.	.	.	4r	8r	.
!	!	!	!	!	!	!	!	!	!	!	!	!	!	!	!	!	!LO:DY:a	!	!	!	!	!	!LO:TX:rj:b:t=flauto	!	!
.	.	.	.	.	.	.	.	.	.	.	.	.	.	.	.	16b/LL 16g/	mf	.	.	.	.	.	.	16bb\LL	.
.	.	.	.	.	.	.	.	.	.	.	.	.	.	.	.	16cc#/JJ 16a/	.	.	.	.	.	mf	.	16cccn\JJ	.
*	*	*	*	*	*	*	*	*	*	*	*	*	*	*	*	*	*	*v	*v	*	*	*	*v	*v	*
=17	=17	=17	=17	=17	=17	=17	=17	=17	=17	=17	=17	=17	=17	=17	=17	=17	=17	=17	=17	=17	=17	=17	=17
*	*	*tremolo	*	*	*	*	*	*	*	*	*	*	*	*	*	*	*	*	*	*	*	*	*
!	!	!	!LO:DY:a	!	!	!	!	!	!	!	!	!	!	!	!	!	!	!	!	!	!	!	!
2r	.	32ee\LLL	p	2r	.	8G\	.	8r	.	8r	.	2r	.	2r	.	8dd\ 8b\	.	2r	.	16G/LL	.	8ddd\	.
.	.	32ee\	.	.	.	.	.	.	.	.	.	.	.	.	.	.	.	.	.	.	.	.	.
.	.	32ee\	.	.	.	.	.	.	.	.	.	.	.	.	.	.	.	.	.	16d/	.	.	.
.	.	32ee\JJ	.	.	.	.	.	.	.	.	.	.	.	.	.	.	.	.	.	.	.	.	.
*	*	*Xtremolo	*	*	*	*	*	*	*	*	*	*	*	*	*	*	*	*	*	*	*	*	*
.	.	8ee\J	.	.	.	8r	.	8d\ 8G\	.	8g/ 8B/	.	.	.	.	.	4b/ 4g^/	.	.	.	16B/	.	4bb^<\	.
.	.	.	.	.	.	.	.	.	.	.	.	.	.	.	.	.	.	.	.	16d/JJ	.	.	.
.	.	4r	.	.	.	8GG/	sf	8r	.	8r	.	.	.	.	.	.	.	.	.	16G/LL	.	.	.
.	.	.	.	.	.	.	.	.	.	.	.	.	.	.	.	.	.	.	.	16d/	.	.	.
!	!	!	!	!	!	!	!	!	!LO:DY:a	!	!LO:DY:a	!	!	!	!	!	!	!	!	!	!	!	!
.	.	.	.	.	.	8r	.	8d\ 8A\	sf	8f#/ 8cn/	sf	.	.	.	.	8ccn/ 8a/	.	.	.	16cn/	.	8cccn\	.
.	.	.	.	.	.	.	.	.	.	.	.	.	.	.	.	.	.	.	.	16d/JJ	.	.	.
=18	=18	=18	=18	=18	=18	=18	=18	=18	=18	=18	=18	=18	=18	=18	=18	=18	=18	=18	=18	=18	=18	=18	=18
*	*	*tremolo	*	*	*	*	*	*	*	*	*	*	*	*	*	*	*	*	*	*	*	*	*
2r	.	32ee\LLL	.	2r	.	8G\	.	8r	.	8r	.	2r	.	2r	.	8dd\L 8b'\	.	2r	.	16G/LL	.	8ddd'\L	.
.	.	32ee\	.	.	.	.	.	.	.	.	.	.	.	.	.	.	.	.	.	.	.	.	.
.	.	32ee\	.	.	.	.	.	.	.	.	.	.	.	.	.	.	.	.	.	16d/	.	.	.
.	.	32ee\JJ	.	.	.	.	.	.	.	.	.	.	.	.	.	.	.	.	.	.	.	.	.
.	.	.	.	.	.	.	.	.	.	.	.	.	.	.	.	(16qqdd\LL (16qqb/	.	.	.	.	.	(16qqddd/LL	.
.	.	.	.	.	.	.	.	.	.	.	.	.	.	.	.	16qqee\JJ 16qqccn/	.	.	.	.	.	16qqeee/JJ	.
*	*	*Xtremolo	*	*	*	*	*	*	*	*	*	*	*	*	*	*	*	*	*	*	*	*	*
.	.	8ee\J	.	.	.	8r	.	8d\ 8G\	.	8g/ 8B/	.	.	.	.	.	8dd/ 8b\)	.	.	.	16B/	.	8ddd\)	.
.	.	.	.	.	.	.	.	.	.	.	.	.	.	.	.	.	.	.	.	16d/JJ	.	.	.
*	*	*	*	*	*	*	*	*	*	*	*	*	*	*	*	*	*	*	*	*rep	*	*	*
.	.	4r	.	.	.	8GG/	.	8r	.	8r	.	.	.	.	.	8ccn/ 8a'\)	.	.	.	16G/LL	.	8cccn'\	.
.	.	.	.	.	.	.	.	.	.	.	.	.	.	.	.	.	.	.	.	16d/	.	.	.
.	.	.	.	.	.	8r	.	8d\ 8G\	.	8g/ 8B/	.	.	.	.	.	8b/J 8g'\	.	.	.	16B/	.	8bb'\J	.
.	.	.	.	.	.	.	.	.	.	.	.	.	.	.	.	.	.	.	.	16d/JJ	.	.	.
*	*	*	*	*	*	*	*	*	*	*	*	*	*	*	*	*	*	*	*	*Xrep	*	*	*
=19	=19	=19	=19	=19	=19	=19	=19	=19	=19	=19	=19	=19	=19	=19	=19	=19	=19	=19	=19	=19	=19	=19	=19
*	*	*tremolo	*	*	*	*	*	*	*	*	*	*	*	*	*	*	*	*	*	*	*	*	*
2r	.	32ee\LLL	.	2r	.	8D\	.	8r	.	8r	.	2r	.	2r	.	8ccn/L 8a'/	.	2r	.	16F#/LL	.	8cccn'\L	.
.	.	32ee\	.	.	.	.	.	.	.	.	.	.	.	.	.	.	.	.	.	.	.	.	.
.	.	32ee\	.	.	.	.	.	.	.	.	.	.	.	.	.	.	.	.	.	16d/	.	.	.
.	.	32ee\JJ	.	.	.	.	.	.	.	.	.	.	.	.	.	.	.	.	.	.	.	.	.
.	.	.	.	.	.	.	.	.	.	.	.	.	.	.	.	(16qqcc/LL 16qqa/	.	.	.	.	.	(16qqccc/LL	.
.	.	.	.	.	.	.	.	.	.	.	.	.	.	.	.	16qqdd/JJ 16qqb/	.	.	.	.	.	16qqddd/JJ	.
*	*	*Xtremolo	*	*	*	*	*	*	*	*	*	*	*	*	*	*	*	*	*	*	*	*	*
.	.	8ee\J	.	.	.	8r	.	8d\ 8A\	.	8f#/ 8cn/	.	.	.	.	.	8cc/ 8a/)	.	.	.	16A/	.	8ccc\)	.
.	.	.	.	.	.	.	.	.	.	.	.	.	.	.	.	.	.	.	.	16d/JJ	.	.	.
.	.	4r	.	.	.	8D\	.	8r	.	8r	.	.	.	.	.	8b/ 8g'/	.	.	.	16D/LL	.	8bb'\	.
.	.	.	.	.	.	.	.	.	.	.	.	.	.	.	.	.	.	.	.	16d/	.	.	.
.	.	.	.	.	.	8r	.	8d\ 8A\	.	8f#/ 8c/	.	.	.	.	.	8a/J 8d'/	.	.	.	16A/	.	8aa'\J	.
.	.	.	f	.	.	.	.	.	.	.	.	.	.	.	.	.	.	.	.	16d/JJ	.	.	.
=20	=20	=20	=20	=20	=20	=20	=20	=20	=20	=20	=20	=20	=20	=20	=20	=20	=20	=20	=20	=20	=20	=20	=20
*	*	*^	*	*	*	*	*	*	*	*	*	*	*	*	*	*	*	*^	*	*	*	*^	*
!	!	!	!	!	!	!	!	!	!	!	!	!	!	!	!	!	!	!	!	!	!	!	!	!LO:TX:a:t=Piccolo	!	!
!	!	!	!	!	!	!	!	!LO:DY:rj	!	!LO:DY:rj	!	!	!	!LO:DY:rj	!	!LO:DY:rj	!	!	!	!	!	!	!	!LO:DY:rj	!	!LO:DY:rj
8C/	.	8ee/	8a\	.	8D/	.	8G\	f	8r	f	8r	.	16b'\LL	f	4.G\	f	(4b/ (4g/	.	2d/	2d\	f	16G/LL	f	16b'/LL	2rg	f
.	.	.	.	.	.	.	.	.	.	.	.	.	16dd'\	.	.	.	.	.	.	.	.	16d/	.	16dd'/	.	.
8r	.	8r	8ryy	.	8r	.	8r	.	8d\ 8G\	.	8g/ 8B/	.	16gg'\	.	.	.	.	.	.	.	.	16B/	.	16gg'/	.	.
.	.	.	.	.	.	.	.	.	.	.	.	.	16bb'\JJ	.	.	.	.	.	.	.	.	16d/JJ	.	16bb'/JJ	.	.
4r	.	4r	4ryy	.	4r	.	8GG/	.	8r	.	8r	.	16gg'\LL	.	.	.	8g/ 8B/))	.	.	.	.	16G/LL	.	16gg'/LL	.	.
.	.	.	.	.	.	.	.	.	.	.	.	.	16gg'\	.	.	.	.	.	.	.	.	16d/	.	16gg'/	.	.
.	.	.	.	.	.	.	8r	.	8d\ 8G\	.	8g/ 8B/	.	16gg'\	.	8r	.	8r	.	.	.	.	16B/	.	16gg'/	.	.
.	.	.	.	.	.	.	.	.	.	.	.	.	16gg'\JJ	.	.	.	.	.	.	.	.	16d/JJ	.	16gg'/JJ	.	.
*	*	*v	*v	*	*	*	*	*	*	*	*	*	*	*	*	*	*	*	*v	*v	*	*	*	*v	*v	*
=21	=21	=21	=21	=21	=21	=21	=21	=21	=21	=21	=21	=21	=21	=21	=21	=21	=21	=21	=21	=21	=21	=21	=21
*	*	*tremolo	*	*	*	*	*	*	*	*	*	*	*	*	*	*	*	*	*	*	*	*	*
!	!	!	!LO:DY:rj	!	!	!	!LO:DY:rj	!	!	!	!	!	!	!	!	!	!	!	!	!	!	!LO:TX:rj:a:t=flaut	!
2r	.	32ee\LLL	p	2r	.	8G\	p	8r	.	8r	p	2r	.	2r	.	8dd\ 8b\	.	2r	.	16G/LL	.	8ddd\	.
.	.	32ee\	.	.	.	.	.	.	.	.	.	.	.	.	.	.	.	.	.	.	.	.	.
.	.	32ee\	.	.	.	.	.	.	.	.	.	.	.	.	.	.	.	.	.	16d/	.	.	.
.	.	32ee\JJ	.	.	.	.	.	.	.	.	.	.	.	.	.	.	.	.	.	.	.	.	.
*	*	*Xtremolo	*	*	*	*	*	*	*	*	*	*	*	*	*	*	*	*	*	*	*	*	*
.	.	8ee\J	.	.	.	8r	.	8d\ 8G\	.	8g/ 8B/	.	.	.	.	.	4b/ 4g^/	.	.	.	16B/	.	4bb^\	.
.	.	.	.	.	.	.	.	.	.	.	.	.	.	.	.	.	.	.	.	16d/JJ	.	.	.
.	.	4r	.	.	.	8GG/	sf	8r	.	8r	.	.	.	.	.	.	.	.	.	16G/LL	.	.	.
.	.	.	.	.	.	.	.	.	.	.	.	.	.	.	.	.	.	.	.	16d/	.	.	.
.	.	.	.	.	.	8r	.	8d\ 8A\	.	8f#/ 8cn/	sf	.	.	.	.	8ccn/ 8a/	.	.	.	16cn/	.	8cccn\	.
.	.	.	.	.	.	.	.	.	.	.	.	.	.	.	.	.	.	.	.	16d/JJ	.	.	.
!	!	!	!	!	!	!LO:LB:g=original	!	!LO:LB:g=original	!	!LO:LB:g=original	!	!LO:LB:g=original	!	!LO:LB:g=original	!	!	!	!	!	!LO:LB:g=original	!	!LO:LB:g=original	!
=22	=22	=22	=22	=22	=22	=22	=22	=22	=22	=22	=22	=22	=22	=22	=22	=22	=22	=22	=22	=22	=22	=22	=22
*	*	*	*	*	*	*	*	*	*	*	*	*	*	*	*	*	*	*	*	*	*	*^	*
*	*	*tremolo	*	*	*	*	*	*	*	*	*	*	*	*	*	*	*	*	*	*	*	*	*	*
2r	.	32ee\LLL	.	2r	.	8r	.	8r	.	8r	.	2r	.	2r	.	8dd\L 8b\	.	2r	.	16G/LL	.	8ddd'\L	2r	.
.	.	32ee\	.	.	.	.	.	.	.	.	.	.	.	.	.	.	.	.	.	.	.	.	.	.
.	.	32ee\	.	.	.	.	.	.	.	.	.	.	.	.	.	.	.	.	.	16d/	.	.	.	.
.	.	32ee\JJ	.	.	.	.	.	.	.	.	.	.	.	.	.	.	.	.	.	.	.	.	.	.
.	.	.	.	.	.	.	.	.	.	.	.	.	.	.	.	(16qqdd\LL 16qqb/	.	.	.	.	.	(16qqddd/LL	.	.
.	.	.	.	.	.	.	.	.	.	.	.	.	.	.	.	16qqee\JJ 16qqccn/	.	.	.	.	.	16qqeee/JJ	.	.
*	*	*Xtremolo	*	*	*	*	*	*	*	*	*	*	*	*	*	*	*	*	*	*	*	*	*	*
.	.	8ee\J	.	.	.	8G\	.	8d/ 8G/	.	8g/ 8B/	.	.	.	.	.	8dd/J 8b\)	.	.	.	16B/	.	8ddd\)	.	.
.	.	.	.	.	.	.	.	.	.	.	.	.	.	.	.	.	.	.	.	16d/JJ	.	.	.	.
*	*	*	*	*	*	*	*	*	*	*	*	*	*	*	*	*	*	*	*	*rep	*	*	*	*
.	.	4r	.	.	.	8r	.	8r	.	8r	.	.	.	.	.	8ccn/L 8a/	.	.	.	16G/LL	.	8cccn'\	.	.
.	.	.	.	.	.	.	.	.	.	.	.	.	.	.	.	.	.	.	.	16d/	.	.	.	.
.	.	.	.	.	.	8GG/	.	8d/ 8G/	.	8g/ 8B/	.	.	.	.	.	8b/J 8g/	.	.	.	16B/	.	8bb'\J	.	.
.	.	.	.	.	.	.	.	.	.	.	.	.	.	.	.	.	.	.	.	16d/JJ	.	.	.	.
*	*	*	*	*	*	*	*	*	*	*	*	*	*	*	*	*	*	*	*	*Xrep	*	*	*	*
=23	=23	=23	=23	=23	=23	=23	=23	=23	=23	=23	=23	=23	=23	=23	=23	=23	=23	=23	=23	=23	=23	=23	=23	=23
*	*	*tremolo	*	*	*	*	*	*	*	*	*	*	*	*	*	*	*	*	*	*	*	*	*	*
2r	.	32ee\LLL	.	2r	.	8r	.	8r	.	8r	.	2r	.	2r	.	8ccn/L 8a/	.	2r	.	16F#/LL	.	8cccn'\L	2r	.
.	.	32ee\	.	.	.	.	.	.	.	.	.	.	.	.	.	.	.	.	.	.	.	.	.	.
.	.	32ee\	.	.	.	.	.	.	.	.	.	.	.	.	.	.	.	.	.	16d/	.	.	.	.
.	.	32ee\JJ	.	.	.	.	.	.	.	.	.	.	.	.	.	.	.	.	.	.	.	.	.	.
.	.	.	.	.	.	.	.	.	.	.	.	.	.	.	.	(16qqcc/LL 16qqa/	.	.	.	.	.	(16qqccc/LL	.	.
.	.	.	.	.	.	.	.	.	.	.	.	.	.	.	.	16qqdd/JJ 16qqb/	.	.	.	.	.	16qqddd/JJ	.	.
*	*	*Xtremolo	*	*	*	*	*	*	*	*	*	*	*	*	*	*	*	*	*	*	*	*	*	*
.	.	8ee\J	.	.	.	8D\	.	8d/ 8A/	.	8f#/ 8cn/	.	.	.	.	.	8cc/ 8a/)	.	.	.	16A/	.	8ccc\)	.	.
.	.	.	.	.	.	.	.	.	.	.	.	.	.	.	.	.	.	.	.	16d/JJ	.	.	.	.
.	.	4r	.	.	.	8r	.	8r	.	8r	.	.	.	.	.	8b/ 8g/	.	.	.	16D/LL	.	8bb'\	.	.
.	.	.	.	.	.	.	.	.	.	.	.	.	.	.	.	.	.	.	.	16d/	.	.	.	.
.	.	.	.	.	.	8D\	.	8d/ 8A/	.	8f#/ 8c/	.	.	.	.	.	8a/J 8d/	.	.	.	16cn/ 16A/	.	8aa'\J	.	.
.	.	.	.	.	.	.	.	.	.	.	.	.	.	.	.	.	.	.	.	16d/JJ	.	.	.	.
=24	=24	=24	=24	=24	=24	=24	=24	=24	=24	=24	=24	=24	=24	=24	=24	=24	=24	=24	=24	=24	=24	=24	=24	=24
2r	.	8ee\	.	2r	.	8G\	.	8d/ 8G/	.	8g/ 8B/	.	4r	.	2r	.	8g/ 8B/	.	2r	.	8G/	.	8gg/	4r	.
!	!	!	!	!	!	!	!	!.	!	!	!	!	!	!	!	!	!	!	!	!	!	!	!	!
.	.	8r	.	.	.	8r	.	8r	.	8r	.	.	.	.	.	8r	.	.	.	8r	.	8r	.	.
!	!	!	!	!	!	!	!LO:DY:rj	!	!LO:DY:rj	!	!	!	!	!	!	!	!	!	!	!	!	!	!	!
.	.	4r	.	.	.	16.F#\LL	f	16.f#\LL	f	16.r	.	16.r	.	.	.	4r	.	.	.	16.r	.	16.r	16.r	.
!	!	!	!	!	!	!	!	!	!	!	!	!	!	!	!	!	!	!	!	!	!	!LO:TX:rj:a:t=due	!	!
!	!	!	!	!	!	!	!	!	!	!	!	!	!	!	!	!	!	!	!	!	!	!	!	!LO:DY:b:rj:t=ffo
.	.	.	.	.	.	32E\K	.	32e\K	.	32f#/KLL	.	32ff#'\KLL	f	.	.	.	.	.	.	32f#/KLL	.	32ff#\KLL	32ryy	f
.	.	.	.	.	.	16.D\	.	16.d\	.	16.g#X/	.	16.gg#X'\	.	.	.	.	.	.	.	16.g#X/	.	16.gg#X\	8ryy	.
.	.	.	.	.	.	32C#\JJk	.	32c#\JJk	.	32a#X/JJk	.	32aa#X'\JJk	.	.	.	.	.	.	.	32a#X/JJk	.	32aa#X\JJk	.	.
*	*	*	*	*	*	*	*	*	*	*	*	*	*	*	*	*	*	*	*	*	*	*v	*v	*
!LO:PB:g=original	!	!LO:PB:g=original	!	!LO:PB:g=original	!	!	!	!	!	!	!	!	!	!	!	!	!	!	!	!	!	!	!
=25	=25	=25	=25	=25	=25	=25	=25	=25	=25	=25	=25	=25	=25	=25	=25	=25	=25	=25	=25	=25	=25	=25	=25
*	*	*	*	*	*	*	*	*	*	*	*	*	*	*	*	*^	*	*^	*	*	*	*	*
*	*	*tremolo	*	*tremolo	*	*tremolo	*	*tremolo	*	*	*	*	*	*	*	*	*	*	*	*	*	*	*	*	*
!	!LO:DY:rj:t=ffo	!	!	!	!LO:DY:rj:t=ffo	!	!	!	!	!	!	!	!	!	!	!	!	!	!	!	!	!	!	!	!
4.C/yy	ffyy	32ee\LLLyy	.	32D\LLLyy	ffyy	16BB/LLyy	.	16f#yy\LL 16d\yy	ffyy	4bT\yyyy	ffyy	4bbT\	ffyy	[4B\yy	.	[4b/yy	[4d\yy	.	[4f#/yy	[4d\yy	ff	[>4b/yy	.	4bbyy\	.
.	.	32ee\yy	.	32D\yy	.	.	.	.	.	.	.	.	.	.	.	.	.	.	.	.	.	.	.	.	.
.	.	32ee\yy	.	32D\yy	.	16BB/yy	.	16f#yy\ 16dyy\	.	.	.	.	.	.	.	.	.	.	.	.	.	.	.	.	.
.	.	32ee\yy	.	32D\yy	.	.	.	.	.	.	.	.	.	.	.	.	.	.	.	.	.	.	.	.	.
.	.	32ee\yy	.	32D\yy	.	16BB/yy	.	16f#yy\ 16d\yy	.	.	.	.	.	.	.	.	.	.	.	.	.	.	.	.	.
.	.	32ee\yy	.	32D\yy	.	.	.	.	.	.	.	.	.	.	.	.	.	.	.	.	.	.	.	.	.
.	.	32ee\yy	.	32D\yy	.	16BB/JJyy	.	16f#yy\JJ 16d\yy	.	.	.	.	.	.	.	.	.	.	.	.	.	.	.	.	.
.	.	32ee\JJJyy	.	32D\JJJyy	.	.	.	.	.	.	.	.	.	.	.	.	.	.	.	.	.	.	.	.	.
.	.	.	.	.	.	.	.	.	.	(16qqa#X/LLyyyy	.	(16qqaa#X/LL	.	.	.	.	.	.	.	.	.	.	.	(<16qqaa#X\LLyy	.
.	.	.	.	.	.	.	.	.	.	16qqb/yyyy	.	16qqbb/	.	.	.	.	.	.	.	.	.	.	.	16qqbbyy\	.
.	.	.	.	.	.	.	.	.	.	16qqcc#/JJyyyy	.	16qqccc#/JJ	.	.	.	.	.	.	.	.	.	.	.	16qqccc#\JJyy	.
.	.	8ee\yy	.	8D\yy	.	8BB/yy	.	8f#yy\ 8d\yy	.	16.b'\LL)yyyy	.	16.bb'\LL)	.	8B\]yy	.	16.b/LL]yy	8d\]yy	.	8f#/]yy	8d\]yy	.	16.b/LL]yy	.	16.bb\)yy	.
.	.	.	.	.	.	.	.	.	.	32f#'\Kyyyy	.	32ff#'\K	.	.	.	32f#/Kyy	.	.	.	.	.	32f#/Kyy	.	32ff#yy\|	.
8ryy	.	8ryy	.	8ryy	.	8ryy	.	8ryy	.	16.dd'\yyyy	.	16.ddd'\	.	8ryy	.	16.dd/yy	8ryy	.	8ryy	8ryyyy	.	16.dd/yy	.	16.dddyy\|	.
.	.	.	.	.	.	.	.	.	.	32cc#'\JJkyyyy	.	32ccc#'\JJk	.	.	.	32cc#/JJkyy	.	.	.	.	.	32cc#/JJkyy	.	32ccc#yy\|	.
=26	=26	=26	=26	=26	=26	=26	=26	=26	=26	=26	=26	=26	=26	=26	=26	=26	=26	=26	=26	=26	=26	=26	=26	=26	=26
*	*	*	*	*	*	*rep	*	*rep	*	*rep	*	*rep	*	*	*	*rep	*rep	*	*	*	*	*rep	*	*rep	*
4.C/yy	.	32ee\LLLyy	.	32D\LLLyy	.	16BB/LLyy	.	16f#yy\LL 16d\	.	4bT\yyyy	.	4bbT\	.	[4B\yy	.	[4b/yy	[4d\yy	.	[4f#/yy	[4d\yy	.	[>4b/yy	.	4bbyy\	.
.	.	32ee\yy	.	32D\yy	.	.	.	.	.	.	.	.	.	.	.	.	.	.	.	.	.	.	.	.	.
.	.	32ee\yy	.	32D\yy	.	16BB/yy	.	16f#yy\ 16d\	.	.	.	.	.	.	.	.	.	.	.	.	.	.	.	.	.
.	.	32ee\yy	.	32D\yy	.	.	.	.	.	.	.	.	.	.	.	.	.	.	.	.	.	.	.	.	.
.	.	32ee\yy	.	32D\yy	.	16BB/yy	.	16f#yy\ 16d\	.	.	.	.	.	.	.	.	.	.	.	.	.	.	.	.	.
.	.	32ee\yy	.	32D\yy	.	.	.	.	.	.	.	.	.	.	.	.	.	.	.	.	.	.	.	.	.
.	.	32ee\yy	.	32D\yy	.	16BB/JJyy	.	16f#yy\JJ 16d\	.	.	.	.	.	.	.	.	.	.	.	.	.	.	.	.	.
.	.	32ee\JJJyy	.	32D\JJJyy	.	.	.	.	.	.	.	.	.	.	.	.	.	.	.	.	.	.	.	.	.
.	.	.	.	.	.	.	.	.	.	(16qqa#X/LLyyyy	.	(16qqaa#X/LL	.	.	.	.	.	.	.	.	.	.	.	(<16qqaa#Xyy\	.
.	.	.	.	.	.	.	.	.	.	16qqb/yyyy	.	16qqbb/	.	.	.	.	.	.	.	.	.	.	.	16qqbbyy\	.
.	.	.	.	.	.	.	.	.	.	16qqcc#/JJyyyy	.	16qqccc#/JJ	.	.	.	.	.	.	.	.	.	.	.	16qqccc#\)yy	.
.	.	8ee\yy	.	8D\yy	.	8BB/yy	.	8f#yy\ 8d\	.	16.b'\LL)yyyy	.	16.bb'\LL)	.	8B\]yy	.	16.b/LL]yy	8d\]yy	.	8f#/]yy	8d\]yy	.	16.b/LL]yy	.	16.bbyy\	.
.	.	.	.	.	.	.	.	.	.	32f#'\Kyyyy	.	32ff#'\K	.	.	.	32f#/Kyy	.	.	.	.	.	32f#/Kyy	.	32ff#yy\|	.
8ryy	.	8ryy	.	8ryy	.	8ryy	.	8ryy	.	16.dd'\yyyy	.	16.ddd'\	.	8ryy	.	16.dd/yy	8ryy	.	8ryy	8ryyyy	.	16.dd/yy	.	16.dddyy\|	.
.	.	.	.	.	.	.	.	.	.	32cc#'\JJkyyyy	.	32ccc#'\JJk	.	.	.	32cc#/JJkyy	.	.	.	.	.	32cc#/JJkyy	.	32ccc#yy\|	.
*	*	*	*	*	*	*Xrep	*	*Xrep	*	*Xrep	*	*Xrep	*	*	*	*Xrep	*Xrep	*	*	*	*	*Xrep	*	*Xrep	*
*	*	*	*	*	*	*Xtremolo	*	*Xtremolo	*	*	*	*	*	*	*	*	*	*	*	*	*	*	*	*	*
*	*	*	*	*	*	*	*	*	*	*	*	*	*	*	*	*v	*v	*	*	*	*	*	*	*	*
=27	=27	=27	=27	=27	=27	=27	=27	=27	=27	=27	=27	=27	=27	=27	=27	=27	=27	=27	=27	=27	=27	=27	=27	=27
!LO:TX:a:t=2.	!	!LO:TX:a:t=2.	!	!LO:TX:a:t=2.	!	!	!	!	!	!	!	!	!	!	!	!	!	!	!	!	!	!	!	!
2ryy	.	2ryy	.	2ryy	.	16.BB/yy	.	16.f#yy\ 16.d\yy	.	16.b\yyyy	.	16.bb\	.	16.B\yy	.	16.byy/ 16.d/yy	.	16.f#/yy	16.d\yy	.	16.b/yy	.	16.bbyy\ 16.b\yy	.
!	!	!	!	!	!	!	!	!	!	!LO:SIC:v:s=32g	!	!	!	!	!	!	!	!	!	!	!	!	!	!
.	.	.	.	.	.	32G\KLLyy	.	32G/KLLyy	.	32G/KLLyyyy	.	32g/KLL	.	32ryy	.	32ryy	.	32ryy	32ryyyy	.	32g/KLLyy	.	32ryy	.
!	!	!	!	!	!	!	!	!	!	!LO:SIC:v:16.f#	!	!	!	!	!	!	!	!	!	!	!	!	!	!
.	.	.	.	.	.	16.F#\yy	.	16.F#/yy	.	16.F#/yyyy	.	16.f#/	.	8ryy	.	8ryy	.	8ryy	8ryyyy	.	16.f#/yy	.	8ryy	.
!	!	!	!	!	!	!	!	!	!	!LO:SIC:v:32e#	!	!	!	!	!	!	!	!	!	!	!	!	!	!
.	.	.	.	.	.	32E#X\JJkyy	.	32E#X/JJkyy	.	32E#X/JJkyyyy	.	32e#X/JJk	.	.	.	.	.	.	.	.	32e#X/JJkyy	.	.	.
!	!	!	!	!	!	!	!	!	!	!LO:SIC:v:s=8f#	!	!	!	!	!	!	!	!	!	!	!	!	!	!
.	.	.	.	.	.	8F#\yy	.	8F#/yy	.	8F#/yyyy	.	8f#/	.	8ryy	.	4ryy	.	8ryy	8ryyyy	.	8f#/yy	.	8ryy	.
*	*	*	*	*	*	*	*	*	*	*	*	*	*	*	*	*	*	*v	*v	*	*	*	*	*
*	*	*	*	*	*	*	*	*	*	*	*	*	*	*	*	*	*	*^	*	*	*	*	*
.	.	.	.	.	.	8F#\yy	.	8f#yy\ 8d\yy	.	8dd\yy	.	8bb\	.	8F#\yy	.	.	.	8f#/yy	8f#\yy	.	8ddyy\ 8b\yy	.	8bbyy\ 8b'\yy	.
=28	=28	=28	=28	=28	=28	=28	=28	=28	=28	=28	=28	=28	=28	=28	=28	=28	=28	=28	=28	=28	=28	=28	=28	=28
*	*	*	*	*	*	*tremolo	*	*	*	*	*	*	*	*tremolo	*	*	*	*tremolo	*tremolo	*	*	*	*	*
*	*	*	*	*	*	*2\right	*	*	*	*	*	*	*	*2\right	*	*	*	*	*	*	*	*	*	*
2ryy	.	2ryy	.	2ryy	.	8F#\Lyy	.	8f#yy\L 8c#\yy	.	8cc#'\Lyy	.	8aa#X'\L	.	8F#'\Lyy	.	2ryy	.	8f#/Lyy	8f#\Lyy	.	8cc#yy\L 8a#X'\yy	.	8aa#Xyy\L 8a#X'\yy	.
.	.	.	.	.	.	8F#\yy	.	8f#yy\ 8d\yy	.	8dd'\yy	.	8bb'\	.	8F#'\yy	.	.	.	8f#/yy	8f#\yy	.	8ddyy\ 8b'\yy	.	8bbyy\ 8b'\yy	.
.	.	.	.	.	.	8F#\yy	.	8f#yy\ 8e\yy	.	8ee'\yy	.	8ccc#'\	.	8F#'\yy	.	.	.	8f#/yy	8f#\yy	.	8eeyy\ 8cc#'\yy	.	8ccc#yy\ 8cc#'\yy	.
.	.	.	.	.	.	8F#\Jyy	.	8f#yy\J 8d\yy	.	8ff#'\Jyy	.	8ddd'\J	.	8F#'\Jyy	.	.	.	8f#/Jyy	8f#\Jyy	.	8ff#yy\J 8dd'\yy	.	8dddyy\J 8dd'\yy	.
*	*	*	*	*	*	*	*	*	*	*	*	*	*	*Xtremolo	*	*	*	*Xtremolo	*Xtremolo	*	*	*	*	*
*	*	*	*	*	*	*	*	*	*	*	*	*	*	*	*	*	*	*v	*v	*	*	*	*	*
!	!	!	!	!	!	!LO:LB:g=original	!	!LO:LB:g=original	!	!LO:LB:g=original	!	!LO:LB:g=original	!	!LO:LB:g=original	!	!	!	!	!	!LO:LB:g=original	!	!LO:LB:g=original	!
=29	=29	=29	=29	=29	=29	=29	=29	=29	=29	=29	=29	=29	=29	=29	=29	=29	=29	=29	=29	=29	=29	=29	=29
*	*	*	*	*	*	*	*	*tremolo	*	*8ba	*	*	*	*	*	*	*	*	*	*	*	*	*
*	*	*	*	*	*	*	*	*	*	*	*	*	*	*	*	*^	*	*	*	*	*	*	*
!	!	!	!	!	!	!	!	!	!	!	!	!	!	!	!	!	!	!	!	!LO:DY:rj	!	!	!	!
4.C/yy	.	32ee\LLLyy	.	32D\LLLyy	fyy	16BB/LLyy	.	16f#yy\LL 16d\yy	.	4bT\yyyy	.	4bbT\	.	[4B\yy	.	[4b/yy	[4d\yy	.	[4f#yy\ [4d\yy	fyy	[4b/yy	.	4bbyy\	.
.	.	32ee\yy	.	32D\yy	.	.	.	.	.	.	.	.	.	.	.	.	.	.	.	.	.	.	.	.
.	.	32ee\yy	.	32D\yy	.	16BB/yy	.	16f#yy\ 16d\yy	.	.	.	.	.	.	.	.	.	.	.	.	.	.	.	.
.	.	32ee\yy	.	32D\yy	.	.	.	.	.	.	.	.	.	.	.	.	.	.	.	.	.	.	.	.
.	.	32ee\yy	.	32D\yy	.	16BB/yy	.	16f#yy\ 16d\yy	.	.	.	.	.	.	.	.	.	.	.	.	.	.	.	.
.	.	32ee\yy	.	32D\yy	.	.	.	.	.	.	.	.	.	.	.	.	.	.	.	.	.	.	.	.
.	.	32ee\yy	.	32D\yy	.	16BB/JJyy	.	16f#yy\JJ 16d\yy	.	.	.	.	.	.	.	.	.	.	.	.	.	.	.	.
.	.	32ee\JJJyy	.	32D\JJJyy	.	.	.	.	.	.	.	.	.	.	.	.	.	.	.	.	.	.	.	.
.	.	.	.	.	.	.	.	.	.	(16qqa#X/LLyyyy	.	(16qqaa#X/LL	.	.	.	.	.	.	.	.	.	.	(<16qqaa#X\LLyy	.
.	.	.	.	.	.	.	.	.	.	16qqb/yyyy	.	16qqbb/	.	.	.	.	.	.	.	.	.	.	16qqbbyy\	.
.	.	.	.	.	.	.	.	.	.	16qqcc#/JJyyyy	.	16qqccc#/JJ	.	.	.	.	.	.	.	.	.	.	16qqccc#\JJ)yy	.
.	.	8ee\yy	.	8D\yy	.	8BB/yy	.	8f#yy\ 8d\yy	.	16.b\LL)yyyy	.	16.bb\LL)	.	8B\]yy	.	16.b/LL]yy	8d\]yy	.	8f#\]yy 8d\]yy	.	16.b/LL]yy	.	16.bb\LLLyy	.
.	.	.	.	.	.	.	.	.	.	32f#\Kyyyy	.	32ff#\K	.	.	.	32f#/Kyy	.	.	.	.	32f#/Kyy	.	32ff#yy\	.
8ryy	.	8ryy	.	8ryy	.	8ryy	.	8ryy	.	16.dd\yyyy	.	16.ddd\	.	8ryy	.	16.dd/yy	8ryy	.	8ryy	.	16.dd/yy	.	16.dddyy\	.
.	.	.	.	.	.	.	.	.	.	32cc#\JJkyyyy	.	32ccc#\JJk	.	.	.	32cc#/JJkyy	.	.	.	.	32cc#/JJkyy	.	32ccc#\JJJyy	.
=30	=30	=30	=30	=30	=30	=30	=30	=30	=30	=30	=30	=30	=30	=30	=30	=30	=30	=30	=30	=30	=30	=30	=30	=30
*	*	*rep	*	*rep	*	*rep	*	*rep	*	*rep	*	*rep	*	*	*	*rep	*rep	*	*rep	*	*rep	*	*rep	*
4.C/yy	.	32ee\LLLyy	.	32D\LLLyy	.	16BB/LLyy	.	16f#yy\LL 16d\	.	4bT\yyyy	.	4bbT\	.	[4B\yy	.	[4b/yy	[4d\yy	.	[4f#yy\ [4d\	.	[4b/yy	.	4bbyy\	.
.	.	32ee\yy	.	32D\yy	.	.	.	.	.	.	.	.	.	.	.	.	.	.	.	.	.	.	.	.
.	.	32ee\yy	.	32D\yy	.	16BB/yy	.	16f#yy\ 16d\	.	.	.	.	.	.	.	.	.	.	.	.	.	.	.	.
.	.	32ee\yy	.	32D\yy	.	.	.	.	.	.	.	.	.	.	.	.	.	.	.	.	.	.	.	.
.	.	32ee\yy	.	32D\yy	.	16BB/yy	.	16f#yy\ 16d\	.	.	.	.	.	.	.	.	.	.	.	.	.	.	.	.
.	.	32ee\yy	.	32D\yy	.	.	.	.	.	.	.	.	.	.	.	.	.	.	.	.	.	.	.	.
.	.	32ee\yy	.	32D\yy	.	16BB/JJyy	.	16f#yy\JJ 16d\	.	.	.	.	.	.	.	.	.	.	.	.	.	.	.	.
.	.	32ee\JJJyy	.	32D\JJJyy	.	.	.	.	.	.	.	.	.	.	.	.	.	.	.	.	.	.	.	.
.	.	.	.	.	.	.	.	.	.	(16qqa#X/LLyyyy	.	(16qqaa#X/LL	.	.	.	.	.	.	.	.	.	.	(<16qqaa#Xyy\	.
.	.	.	.	.	.	.	.	.	.	16qqb/yyyy	.	16qqbb/	.	.	.	.	.	.	.	.	.	.	16qqbbyy\	.
.	.	.	.	.	.	.	.	.	.	16qqcc#/JJyyyyyyyy	.	16qqccc#/JJ	.	.	.	.	.	.	.	.	.	.	16qqccc#\)yy	.
.	.	8ee\yy	.	8D\yy	.	8BB/yy	.	8f#yy\ 8d\	.	16.b\LL)yyyyyy	.	16.bb\LL)	.	8B\]yy	.	16.b/LL]yy	8d\]yy	.	8f#\]yy 8d\]	.	16.b/LL]yy	.	16.bb\LLLyy	.
.	.	.	.	.	.	.	.	.	.	32f#\Kyyyy	.	32ff#\K	.	.	.	32f#/Kyy	.	.	.	.	32f#/Kyy	.	32ff#yy\	.
8ryy	.	8ryy	.	8ryy	.	8ryy	.	8ryy	.	16.dd\yyyyyy	.	16.ddd\	.	8ryy	.	16.dd/yy	8ryy	.	8ryy	.	16.dd/yy	.	16.dddyy\	.
.	.	.	.	.	.	.	.	.	.	32cc#\JJkyyyy	.	32ccc#\JJk	.	.	.	32cc#/JJkyy	.	.	.	.	32cc#X/JJkyy	.	32ccc#\JJJyy	.
*	*	*Xrep	*	*Xrep	*	*Xrep	*	*Xrep	*	*Xrep	*	*Xrep	*	*	*	*Xrep	*Xrep	*	*Xrep	*	*Xrep	*	*Xrep	*
*	*	*	*	*	*	*Xtremolo	*	*Xtremolo	*	*	*	*	*	*	*	*	*	*	*	*	*	*	*	*
*	*	*	*	*	*	*	*	*	*	*	*	*	*	*	*	*v	*v	*	*	*	*	*	*	*
!LO:LB:g=original	!LO:LB:g=original	!LO:LB:g=original	!	!	!	!	!	!	!	!	!	!	!	!	!	!	!	!	!	!	!	!	!
=31	=31	=31	=31	=31	=31	=31	=31	=31	=31	=31	=31	=31	=31	=31	=31	=31	=31	=31	=31	=31	=31	=31	=31
*	*	*	*	*	*	*	*	*	*	*	*	*	*	*^	*	*	*	*^	*	*	*	*	*
!	!	!LO:TX:a:t=1.	!	!LO:TX:a:t=1.	!	!	!	!	!	!	!	!	!	!	!	!	!	!	!	!	!	!	!	!	!
2ryy	.	2ryy	.	2ryy	.	16.BB/yy	.	16.f#yy\ 16.d\yy	.	16.b\yyyy	.	16.bb\	.	16.B\yy	16.ryyyy	.	16.byy/ 16.d/yy	.	16.f#/yy	16.d\yy	.	16.b/yy	.	16.bbyy\ 16.b\yy	.
!	!	!	!	!	!	!	!	!	!	!LO:SIC:v:s=32g	!	!	!	!	!	!	!	!	!	!	!	!	!	!	!
.	.	.	.	.	.	32G\KLLyy	.	32G/KLLyy	.	32G/KLLyyyy	.	32g/KLL	.	32ryy	32ryyyy	.	32ryyyy	.	32ryy	32ryyyy	.	32g/KLLyy	.	32ryy	.
!	!	!	!	!	!	!	!	!	!	!LO:SIC:v:16.f#	!	!	!	!	!	!	!	!	!	!	!	!	!	!	!
.	.	.	.	.	.	16.F#\yy	.	16.F#/yy	.	16.F#/yyyy	.	16.f#/	.	8ryy	8ryyyy	.	8ryy	.	8ryy	8ryyyy	.	16.f#/yy	.	8ryy	.
!	!	!	!	!	!	!	!	!	!	!LO:SIC:v:32e#	!	!	!	!	!	!	!	!	!	!	!	!	!	!	!
.	.	.	.	.	.	32E#X\JJkyy	.	32E#X/JJkyy	.	32E#X/JJkyyyy	.	32e#X/JJk	.	.	.	.	.	.	.	.	.	32e#X/JJkyy	.	.	.
!	!	!	!	!	!	!	!	!	!	!LO:SIC:v:8f#	!	!	!	!	!	!	!	!	!	!	!	!	!	!	!
.	.	.	.	.	.	8F#\yy	.	8F#/yy	.	8F#/yyyy	.	8f#/	.	8ryy	4ryy	.	4ryy	.	8ryy	8ryyyy	.	8f#/yy	.	8ryy	.
.	.	.	.	.	.	8F#\yy	.	8f#yy\ 8d\yy	.	8dd\yy	.	8bb\	.	8F#\yy	.	.	.	.	8f#/yy	8f#\yy	.	8ddyy\ 8b\yy	.	8bbyy\ 8b\yy	.
*	*	*	*	*	*	*	*	*	*	*	*	*	*	*v	*v	*	*	*	*	*	*	*	*	*	*
=32	=32	=32	=32	=32	=32	=32	=32	=32	=32	=32	=32	=32	=32	=32	=32	=32	=32	=32	=32	=32	=32	=32	=32	=32
!	!	!	!	!	!	!LO:TX:t=P:problem=mixed beam	!	!	!	!	!	!	!LO:TX:t=P:problem=mixed beam	!	!	!	!	!	!	!	!	!	!	!
8ryy	.	2ryy	.	2ryy	.	8F#\Lyy	.	8f#yy\L 8c#\yy	.	8cc#\Lyy	.	8aa#X'\L	.	8F#/Lyy	.	8ryy	.	8f#/Lyy	8e\Lyy	.	8eeyy\L 8cc#\yy	.	8aa#Xyy\L 8a#X\yy	.
8C/Lyy	.	.	.	.	.	8F#\yy	.	8f#yy\ 8c#\yy	.	8ee\yy	.	8ccc#'\	.	8F#\yy	.	8cc#yy\L 8a#X\yy	.	8f#/yy	8e\yy	.	8eeyy\ 8cc#\yy	.	8ccc#yy\ 8cc#\yy	.
8C/Jyy	.	.	.	.	.	8BB/Jyy	.	8f#yy\J 8d\yy	.	8dd\Jyy	.	8bb'\J	.	8BB/Jyy	.	8b\Jyy	.	8f#/Jyy	8d\Jyy	.	8ddyy\J 8b\yy	.	8bbyy\J 8b\yy	.
8ryy	.	.	.	.	.	8ryy	.	8ryy	.	8ryy	.	8r	.	8ryy	.	8ryy	.	8ryy	8ryyyy	.	8ryy	.	8ryy	.
*	*	*	*	*	*	*	*	*	*	*	*	*	*	*	*	*	*	*v	*v	*	*	*	*	*
==	==	==	==	==	==	==	==	==	==	==	==	==	==	==	==	==	==	==	==	==	==	==	==
*-	*-	*-	*-	*-	*-	*-	*-	*-	*-	*-	*-	*-	*-	*-	*-	*-	*-	*-	*-	*-	*-	*-	*-
!!!system-decoration: s1,s2,s3,s4,s5[(s6,s7,s8,s9)][(s10,s11,s12)]
!!!RDF**kern: > = above
!!!RDF**kern: < = below
!!!RDF**kern: | = vertical stroke
!!!EED: Leszek Kubiak
!!!EEV: 2021-05-31
!!!ENC: Krzysztof Stępień
!!!END: 2021-04-16
!!!YEC: Copyright 2022 Narodowy Instytut Fryderyka Chopina (https://polishscores.org)
!!!YEM: Licence CC BY 4.0 (https://creativecommons.org/licenses/by/4.0)
